X:1
T: Ballendalloch Castle
C:William Marshall
R:Strathspey
Q:128
K:Bb
M:4/4
L:1/16
|:dc|B3c BF3 dB3 B2dc|B3c BF3 dB3 B2dc|B3c B2F2 d2c2 E2d2|f3g fgfe d2B2 B2dc|
B3c BF3 dB3 B2dc|B3c BF3 dB3 B2dc|B3c B2F2 d2c2 E2d2|f3g fgfe d2B2 B2de|
f3g f2d2 e2d2 g2f2|B3d f2d2 gfed c2de|f3g f2d2 c3B d3c|B3G FGBc d3B B2de|
f3g f2d2 e2d2 g2f2|Bcde fgab gfed cdef|g2f2 e2d2 c2B2 d2c2|BG3 FGBc d3B B2:|
